!!!OTL: O, wie lieblich ist's im Kreis et.
!!!OTL-incipit: O WIE LIEBLICH ISTS IM KREIS
!!!COM: F. A. Hofmeister
!!!ARE: Europa, Mitteleuropa, Deutschland
!!!SCT: F0781
!!!TXL: @@DE
!!!YEM: Copyright 1995, estate of Helmut Schaffrath.
**kern	**text
*ICvox	*
*clefG2	*
*M4/4	*
*met(c)	*
*k[f#c#g#]	*
*A:	*
=1	=1
!LO:TX:a:t=Ʒu Dreien.	!
!LO:TX:a:t=Gemüthlich.	!
!LO:TX:a:t=P:only the highest voice encoded:problem	!
{4.a	1._O,
8e	wie
4a	lieb-
4cc#/	-lich
=2	=2
4b/	iſt's
4cc#/	im
2dd/}	Kreis
=3	=3
{4.cc#/	trau-
8ee/	-ter
8ff#/L	Bie-
8eeJ	.
8dd/L	-der-
8cc#J	.
=4	=4
(>4.cc#/	-leu-
8b/)	.
4b/	-te!
4r}	.
=5	=5
{4.a	Menſch
8e	und
4a	Welt
4cc#/	gewinnt
=6	=6
4b/	.
4cc#/	da-
2dd/}	-bei
=7	=7
{4.cc#/	ei-
8ff#/	-ne
4ee/	beß-
4dd#/	-re
=8	=8
(>4.dd#/	Sei-
8ee/)	.
4ee/	-te;
4r}	.
=9	=9
!LO:TX:a:t=Sanft.	!
{4b/	und
8cc#/L	das
8aJ	.
4b/	gan-
8cc#/L	-ʒe
8aJ	.
=10	=10
4b/	Le-
8b/L	-bens-
8cc#J	.
2dd/}	-bild
=11	=11
{4cc#/	wird
8dd/L	ſo
8bJ	.
4cc#/	herr-
8dd/L	-lich,
8bJ	.
=12	=12
4cc#/	wird
8cc#/L	ſo
8ddJ	.
2ee/}	mild,
=13	=13
{4.ff#	Je-
8ff#	-der
4ff#	muß
4ff#	es
=14	=14
2ee	lie-
4cc#	-ben,
4r}	.
=15	=15
!LO:TX:a:t=Alle.	!
{4.dd/	Je-
8dd/	-der
4cc#/	muß
4b/	es
=16	=16
2b/	lie-
4a/	-ben.
4r}	.
==	==
!!!AGN: Geselligkeits -, Moral - Lied
!!!ONB: ESAC (Essen Associative Code) Database: FINK
!!!AMT: simple quadruple
!!!AIN: vox
!!!EED: Helmut Schaffrath
!!!EEV: 1.0
!!Text: Jaeger
!!!GTL: Liedertafel- und Gesellschaftslieder
!!!source: Musikalischer Hausschatz der Deutschen. Eine Sammlung von über 1000 Liedern und Gesängen mit Singstimmen und Klavierbegleitung. Leipzig, Litterarisches Verlags-Haus.
!!!page: 538
!!@@COMMENT:"Zuweilen wird die ganze zweite Haelfte vom Chor wiederholt,
!!von den Worten an "Und das ganze Lebensbild" et."
!!@@END:
!!!URL-scan: https://www.digitale-sammlungen.de/en/view/bsb11144622?page=488
!!!ENC: Anna Maria Matuszewska
!!!EEV: 2024/08/06
*-	*-